Adwaita++/actions/22/document-new.svg

<svg fill="none" height="22" viewBox="0 0 22 22" width="22" xmlns="http://www.w3.org/2000/svg">
  <g fill="#444">
    <path clip-rule="evenodd" d="m4.93729 3c-.26521.00003-.51957.10538-.7071.29291s-.29288.44188-.2929.70709v14c.00002.2652.10537.5196.2929.7071s.44189.2929.7071.2929h5c.13251.0019.26411-.0226.38701-.072.123-.0494.2349-.1228.3293-.2158.0944-.0931.1693-.204.2205-.3262.0511-.1223.0774-.2535.0774-.386s-.0263-.2637-.0774-.386c-.0512-.1222-.1261-.2331-.2205-.3262-.0944-.093-.2063-.1664-.3293-.2158-.1229-.0494-.2545-.0739-.38701-.072h-4v-12h6.58591l2.4141 2.41406v3.58594c-.0019.1325.0226.2641.072.387.0494.123.1228.2349.2158.3293.0931.0944.2039.1693.3262.2205.1223.0511.2535.0774.386.0774s.2637-.0263.386-.0774c.1222-.0512.2331-.1261.3261-.2205.0931-.0944.1665-.2063.2159-.3293.0494-.1229.0739-.2545.072-.387v-4c-.0001-.2652-.1054-.51952-.293-.70703l-3-3c-.1875-.18754-.4418-.29292-.707-.29297z" fill-rule="evenodd"/>
    <path d="m13.9375 13.0033v1.9967h-2v1.9967h2v1.9968h2v-1.9968h2v-1.9967h-2v-1.9967z"/>
  </g>
</svg>

<svg xmlns="http://www.w3.org/2000/svg" fill="none" width="22" height="22" viewBox="0 0 22 22">
 <path fill="#444" fill-rule="evenodd" d="M4.93729 3C4.67208 3.00003 4.41772 3.10538 4.23019 3.29291C4.04266 3.48044 3.93731 3.73479 3.93729 4V18C3.93731 18.2652 4.04266 18.5196 4.23019 18.7071C4.41772 18.8946 4.67208 19 4.93729 19H9.93729C10.0698 19.0019 10.2014 18.9774 10.3243 18.928C10.4473 18.8786 10.5592 18.8052 10.6536 18.7122C10.748 18.6191 10.8229 18.5082 10.8741 18.386C10.9252 18.2637 10.9515 18.1325 10.9515 18C10.9515 17.8675 10.9252 17.7363 10.8741 17.614C10.8229 17.4918 10.748 17.3809 10.6536 17.2878C10.5592 17.1948 10.4473 17.1214 10.3243 17.072C10.2014 17.0226 10.0698 16.9981 9.93729 17H5.93729V5H12.5232L14.9373 7.41406V11C14.9354 11.1325 14.9599 11.2641 15.0093 11.387C15.0587 11.51 15.1321 11.6219 15.2251 11.7163C15.3182 11.8107 15.429 11.8856 15.5513 11.9368C15.6736 11.9879 15.8048 12.0142 15.9373 12.0142C16.0698 12.0142 16.201 11.9879 16.3233 11.9368C16.4455 11.8856 16.5564 11.8107 16.6494 11.7163C16.7425 11.6219 16.8159 11.51 16.8653 11.387C16.9147 11.2641 16.9392 11.1325 16.9373 11V7C16.9372 6.7348 16.8319 6.48048 16.6443 6.29297L13.6443 3.29297C13.4568 3.10543 13.2025 3.00005 12.9373 3H4.93729Z" clip-rule="evenodd"/>
 <path fill="#444" d="M13.9375 13.0033V15H11.9375V16.9967H13.9375V18.9935H15.9375V16.9967H17.9375V15H15.9375V13.0033H13.9375Z"/>
</svg>
